X:967
T:Reel 967
M:4/4
K:Dmaj
L:1/8
AG|FDDF EDB,2|A,DDF EFD2|G>E (3EEE B,EEF|EFED B,2A,2|F>D (3DDD FDA2|A,DDF GABc|dBAF E2EF|A,B,DE D2|GA|B2d2 dBAF|GFAF E2E2|A2dc d2AF|EDEF EDB,D|A,B,DE FAAF|GFGF EFDB,|A,B,DE FDEC|A,DDE D2|
